X:130
T:A Reel
O:No 130 Wm Clarke MS  Feltwell, Norfolk
I:abc2nwc
M:4/4
L:1/8
K:G
G3/2G/2 G3/2G/2 B/2d3/2 d2|c3/2A/2 B3/2G/2 A3/2G/2 FD|
G3/2G/2 G3/2G/2 B/2d3/2 d2|e/2g3/2 f/2a3/2 g/2a/2b/2a/2 g/2b3/2:|
|:g/2g3/2 b3/2g/2 a3/2g/2 f3/2d/2|ef ge d3/2c/2 B3/2G/2|
g/2g3/2 b3/2g/2 a3/2g/2 fd|e/2g3/2 f/2g/2a/2f/2 g2a/2b3/2|
c'3/2a/2 b3/2g/2 a3/2g/2 fd|e/2d/2e/2f/2 ge d3/2c/2 BA|
G3/2G/2 G3/2G/2 B/2d3/2 d2|d3/2g/2 f/2g/2a/2f/2 g/2a/2b/2a/2 g/2b3/2|]

